X:1
T:Title
%%score { 1 | 2 }
L:1/8
M:2/4
K:F
V:1 treble nm="Grand Piano"
V:2 bass 
V:1
 z2 z[Q:1/4=84] C | FF FG | A2 GF | [EG][EG] [GB][FA] | [EG]4 | [EG][EG] [EG][FA] | %6
 [GB]2 [Bd][Bd] | [Ac][GB] [FA][EG] | A3 c | cc cc | d2 cA | AA [GB][FA] | [EG]3 [EG] | AA BB | %14
[M:9/16] cc/-c/d-d/[Fd] |[M:2/4] [Fc][GB] [FA][EG] |[M:3/8] F3 |[M:1/8] c | %18
[M:2/4] [GB][Ec] [Ec][Ec] | Ac c2 | df f2 | dc cc | [GB][Ec] [Ec][Ec] | Ac c[Fd] | %24
 [Fc][GB] [FA][EG] |[M:3/8] F3 |[M:1/8] c |[M:2/4] [GB][Ec] [Ec][Ec] | Ac c2 | df f2 | dc cc | %31
 [GB][Ec] [Ec][Ec] | Ac c[Fd] | [Fc][GB] [FA][EG] |[M:3/8] F3 |] %35
V:2
 z2 z [F,A,] | [F,A,C][F,A,C] [F,A,C][F,B,C] | [F,CF]2 [F,B,E][F,A,] | [C,C][C,C] [C,C][C,C] | %4
 [C,C]3 [C,C] | [C,C][C,C] [C,C][C,C] | [C,C]2 [C,C][C,C] | [C,C][C,C] [C,C][C,C] | %8
 [F,CF]3 [F,A,F] | [F,A,F][F,A,F] [F,A,F][F,A,F] | [F,B,F]2 [F,A,F][F,CF] | %11
 [F,CF][F,CF] [E,C][F,C] | [C,C]3 [C,C] | [F,CF][F,CF] [G,CE][G,CE] | %14
[M:9/16] [A,CF][A,CF]/-[A,CF]/[B,F]-[B,F]/[K:bass][B,,B,] |[M:2/4] [C,A,][C,C] [C,C][C,B,] | %16
[M:3/8] [F,A,]3 |[M:1/8] [F,A,F] |[M:2/4] [E,C][C,C] [C,C][C,C] | [F,CF][F,A,F] [F,A,F]2 | %20
 [B,F][B,DF] [B,DF]2 | [F,B,F][F,A,F] [F,A,F][F,A,F] | [E,C][C,C] [C,C][C,C] | %23
 [F,CF][F,A,F] [F,A,F][B,,B,] | [C,A,][C,C] [C,C][C,B,] |[M:3/8] [F,A,]3 |[M:1/8] [F,A,F] | %27
[M:2/4] [E,C][C,C] [C,C][C,C] | [F,CF][F,A,F] [F,A,F]2 | [B,F][B,DF] [B,DF]2 | %30
 [F,B,F][F,A,F] [F,A,F][F,A,F] | [E,C][C,C] [C,C][C,C] | [F,CF][F,A,F] [F,A,F][B,,B,] | %33
 [C,A,][C,C] [C,C][C,B,] |[M:3/8] [F,A,]3 |] %35

